assets/flowers/july_center_right.svg

<?xml version="1.0" encoding="UTF-8" standalone="no"?>
<svg
   viewBox="0 0 197 618"
   width="197"
   height="618"
   version="1.1"
   id="svg27"
   sodipodi:docname="july_center_right.svg"
   inkscape:version="1.4.2 (f4327f4, 2025-05-13)"
   xmlns:inkscape="http://www.inkscape.org/namespaces/inkscape"
   xmlns:sodipodi="http://sodipodi.sourceforge.net/DTD/sodipodi-0.dtd"
   xmlns="http://www.w3.org/2000/svg"
   xmlns:svg="http://www.w3.org/2000/svg">
  <defs
     id="defs27" />
  <sodipodi:namedview
     id="namedview27"
     pagecolor="#ffffff"
     bordercolor="#000000"
     borderopacity="0.25"
     inkscape:showpageshadow="2"
     inkscape:pageopacity="0.0"
     inkscape:pagecheckerboard="0"
     inkscape:deskcolor="#d1d1d1"
     inkscape:zoom="1.3058252"
     inkscape:cx="83.855019"
     inkscape:cy="238.54647"
     inkscape:window-width="1920"
     inkscape:window-height="1009"
     inkscape:window-x="1912"
     inkscape:window-y="-8"
     inkscape:window-maximized="1"
     inkscape:current-layer="svg27" />
  <path
     d="M125.00,32.00 C125.33,34.17 126.83,40.50 127.00,45.00 C127.17,49.50 125.83,56.67 126.00,59.00 C126.17,61.33 129.83,59.00 128.00,59.00 C126.17,59.00 117.17,59.00 115.00,59.00"
     fill="none"
     stroke="black"
     stroke-width="6.00"
     stroke-linecap="round"
     stroke-linejoin="round"
     id="path1"
     style="stroke-width:4;stroke-dasharray:none" />
  <path
     d="M92.00,48.00 C93.50,49.33 98.83,53.50 101.00,56.00 C103.17,58.50 104.33,61.83 105.00,63.00"
     fill="none"
     stroke="black"
     stroke-width="4.00"
     stroke-linecap="round"
     stroke-linejoin="round"
     id="path2"
     style="stroke-width:4;stroke-dasharray:none" />
  <path
     d="M84.00,51.00 C84.17,51.83 82.33,53.17 85.00,56.00 C87.67,58.83 97.50,66.00 100.00,68.00"
     fill="none"
     stroke="black"
     stroke-width="4.00"
     stroke-linecap="round"
     stroke-linejoin="round"
     id="path3"
     style="stroke-width:4;stroke-dasharray:none" />
  <path
     d="M160.00,60.00 C159.00,60.67 156.50,63.17 154.00,64.00 C151.50,64.83 146.50,64.83 145.00,65.00"
     fill="none"
     stroke="black"
     stroke-width="4.00"
     stroke-linecap="round"
     stroke-linejoin="round"
     id="path4"
     style="stroke-width:4;stroke-dasharray:none" />
  <path
     d="M76.00,63.00 C77.33,64.17 81.67,68.67 84.00,70.00 C86.33,71.33 89.00,70.83 90.00,71.00"
     fill="none"
     stroke="black"
     stroke-width="4.00"
     stroke-linecap="round"
     stroke-linejoin="round"
     id="path5"
     style="stroke-width:4;stroke-dasharray:none" />
  <path
     d="M164.00,70.00 C162.67,71.00 160.00,74.83 156.00,76.00 C152.00,77.17 142.67,76.83 140.00,77.00"
     fill="none"
     stroke="black"
     stroke-width="4.00"
     stroke-linecap="round"
     stroke-linejoin="round"
     id="path6"
     style="stroke-width:4;stroke-dasharray:none" />
  <path
     d="M83.00,81.00 C80.83,80.83 73.33,82.33 70.00,80.00 C66.67,77.67 64.50,71.67 63.00,67.00 C61.50,62.33 60.67,56.83 61.00,52.00 C61.33,47.17 63.50,41.17 65.00,38.00 C66.50,34.83 63.50,33.67 70.00,33.00 C76.50,32.33 97.00,37.00 104.00,34.00 C111.00,31.00 108.83,19.83 112.00,15.00 C115.17,10.17 119.83,6.67 123.00,5.00 C126.17,3.33 126.83,3.67 131.00,5.00 C135.17,6.33 144.33,10.83 148.00,13.00 C151.67,15.17 151.83,16.17 153.00,18.00 C154.17,19.83 155.00,19.00 155.00,24.00 C155.00,29.00 156.67,41.83 153.00,48.00 C149.33,54.17 137.33,59.17 133.00,61.00 C128.67,62.83 128.00,59.33 127.00,59.00"
     fill="none"
     stroke="black"
     stroke-width="4.47"
     stroke-linecap="round"
     stroke-linejoin="round"
     id="path7"
     style="stroke-width:4;stroke-dasharray:none" />
  <path
     d="M93.00,82.00 C96.00,82.17 107.83,85.83 111.00,83.00 C114.17,80.17 111.17,69.00 112.00,65.00 C112.83,61.00 115.67,61.33 116.00,59.00 C116.33,56.67 116.00,55.17 114.00,51.00 C112.00,46.83 105.67,36.83 104.00,34.00"
     fill="none"
     stroke="black"
     stroke-width="4.24"
     stroke-linecap="round"
     stroke-linejoin="round"
     id="path8"
     style="stroke-width:4;stroke-dasharray:none" />
  <path
     d="M146.00,86.00 C146.33,86.17 148.00,86.00 148.00,87.00 C148.00,88.00 145.67,90.67 146.00,92.00 C146.33,93.33 146.67,94.00 150.00,95.00 C153.33,96.00 160.67,98.83 166.00,98.00 C171.33,97.17 178.00,93.00 182.00,90.00 C186.00,87.00 189.67,84.67 190.00,80.00 C190.33,75.33 186.33,66.83 184.00,62.00 C181.67,57.17 181.17,53.33 176.00,51.00 C170.83,48.67 156.83,48.50 153.00,48.00"
     fill="none"
     stroke="black"
     stroke-width="4.00"
     stroke-linecap="round"
     stroke-linejoin="round"
     id="path9"
     style="stroke-width:4;stroke-dasharray:none" />
  <path
     d="M168.00,88.00 C165.00,87.67 153.67,85.33 150.00,86.00 C146.33,86.67 147.33,91.00 146.00,92.00 C144.67,93.00 145.17,93.17 142.00,92.00 C138.83,90.83 129.50,86.17 127.00,85.00"
     fill="none"
     stroke="black"
     stroke-width="4.00"
     stroke-linecap="round"
     stroke-linejoin="round"
     id="path10"
     style="stroke-width:4;stroke-dasharray:none" />
  <path
     d="M84.00,91.00 C82.83,91.33 79.17,91.83 77.00,93.00 C74.83,94.17 72.00,97.17 71.00,98.00"
     fill="none"
     stroke="black"
     stroke-width="4.00"
     stroke-linecap="round"
     stroke-linejoin="round"
     id="path11"
     style="stroke-width:4;stroke-dasharray:none" />
  <path
     d="M90.00,96.00 L77.00,107.00"
     fill="none"
     stroke="black"
     stroke-width="4.00"
     stroke-linecap="round"
     stroke-linejoin="round"
     id="path12"
     style="stroke-width:4;stroke-dasharray:none" />
  <path
     d="M133.00,99.00 C132.83,99.33 130.33,98.83 132.00,101.00 C133.67,103.17 141.17,110.17 143.00,112.00"
     fill="none"
     stroke="black"
     stroke-width="4.00"
     stroke-linecap="round"
     stroke-linejoin="round"
     id="path13"
     style="stroke-width:4;stroke-dasharray:none" />
  <path
     d="M123.00,102.00 C122.83,102.67 120.67,103.17 122.00,106.00 C123.33,108.83 129.50,116.83 131.00,119.00"
     fill="none"
     stroke="black"
     stroke-width="4.00"
     stroke-linecap="round"
     stroke-linejoin="round"
     id="path14"
     style="stroke-width:4;stroke-dasharray:none" />
  <path
     d="M114.00,108.00 L119.00,122.00"
     fill="none"
     stroke="black"
     stroke-width="4.00"
     stroke-linecap="round"
     stroke-linejoin="round"
     id="path15"
     style="stroke-width:4;stroke-dasharray:none" />
  <path
     d="m 80,613 c 0.17,-0.67 1.5,-1 1,-4 -0.5,-3 1.33,17.17 -4,-14 C 67.88666,536.42509 49.905972,450.01231 47.209487,404 45.874974,381.22812 47.198996,322.40458 50.218379,304.69862 52.596965,290.75035 39.425796,299.41505 32,287 c -1,-1.33 0,1.67 0,2"
     fill="none"
     stroke="#000000"
     stroke-width="6"
     stroke-linecap="round"
     stroke-linejoin="round"
     id="path16"
     sodipodi:nodetypes="csssssc"
     style="stroke-width:4;stroke-dasharray:none" />
  <path
     d="M134.00,60.00 C133.17,64.00 132.83,79.83 129.00,84.00 C125.17,88.17 114.17,85.17 111.00,85.00 C107.83,84.83 109.83,83.17 110.00,83.00 C110.17,82.83 113.50,79.33 112.00,84.00 C110.50,88.67 102.83,106.50 101.00,111.00"
     fill="none"
     stroke="black"
     stroke-width="8.25"
     stroke-linecap="round"
     stroke-linejoin="round"
     id="path17"
     style="stroke-width:4;stroke-dasharray:none" />
  <path
     d="m 70,80 c -1.67,0.83 -7.17,2.67 -10,5 -2.83,2.33 -5.83,6.17 -7,9 -1.17,2.83 -1,4.67 0,8 1,3.33 3.83,8.83 6,12 2.17,3.17 4.5,5.17 7,7 2.5,1.83 4,3.33 8,4 4,0.67 15.673601,2.43398 16.812253,0.0677 2.136769,-4.44054 3.371072,-5.81435 5.49704,-8.8425 1.947527,-2.774 3.239408,-3.79688 4.690707,-5.24051 2.24537,-2.23349 5.33001,11.34531 8,15.01532 2.66999,3.67001 5,5.83 8,8 3,2.17 5.83,4.5 10,5 4.17,0.5 9.33,1 15,-2 5.67,-3 15.17,-11.33 19,-16 3.83,-4.67 3.33,-8.17 4,-12 0.67,-3.83 0.33,-9.17 0,-11 -0.33,-1.83 -1.67,0 -2,0"
     fill="none"
     stroke="#000000"
     stroke-width="6.00"
     stroke-linecap="round"
     stroke-linejoin="round"
     id="path18"
     style="stroke-width:4;stroke-dasharray:none"
     sodipodi:nodetypes="cssssssssssssssssc" />
  <path
     d="M 91.083004,124.62204 C 88.913004,131.29204 79.33,158.5 77,165 c -2.33,6.5 -3.758923,10.76196 -4.692379,14.11803 -0.516342,1.85641 -0.634916,2.84533 -1.278578,6.92983 C 70.690214,188.19797 69.97855,190.67 68.80855,197 c -1.17,6.33 -4.617175,20.77703 -5.904275,27 C 61.80385,229.32042 61.33,229.33 59,228 c -2.33,-1.33 -7.67,-8 -10,-12 -2.33,-4 -6,-7.17 -4,-12 2,-4.83 11.234201,-10.47963 15.234201,-13.64963 4,-3.17 9.733197,-9.23227 11.063197,-9.56227"
     fill="none"
     stroke="#000000"
     stroke-width="5.66"
     stroke-linecap="round"
     stroke-linejoin="round"
     id="path19"
     style="stroke-width:4;stroke-dasharray:none"
     sodipodi:nodetypes="csssssssssc" />
  <path
     d="M99.00,145.00 L100.00,144.00"
     fill="none"
     stroke="black"
     stroke-width="8.12"
     stroke-linecap="round"
     stroke-linejoin="round"
     id="path20"
     style="stroke-width:4;stroke-dasharray:none" />
  <path
     d="M 72.878717,177.73326 C 74.208717,177.56326 83,171.33 86,173 c 3,1.67 6.67,8.33 10,11 3.33,2.67 7.33,4.17 10,5 2.67,0.83 4.17,1.33 6,0 1.83,-1.33 4.17,-4 5,-8 0.83,-4 0.67,-11.5 0,-16 -0.67,-4.5 -2.17,-7.83 -4,-11 -1.83,-3.17 -4.67,-6.5 -7,-8 -2.33,-1.5 -5.17,-1.33 -7,-1 -1.83,0.33 -2.33,0.5 -4,3 -1.67,2.5 -4.5,7.5 -6,12 -1.5,4.5 -2.5,12.5 -3,15"
     fill="none"
     stroke="#000000"
     stroke-width="6.00"
     stroke-linecap="round"
     stroke-linejoin="round"
     id="path21"
     style="stroke-width:4;stroke-dasharray:none"
     sodipodi:nodetypes="csssssssssssc" />
  <path
     d="M8.00,174.00 C7.67,173.33 6.17,171.50 6.00,170.00 C5.83,168.50 5.67,167.17 7.00,165.00 C8.33,162.83 11.83,158.67 14.00,157.00 C16.17,155.33 18.17,155.00 20.00,155.00 C21.83,155.00 23.67,157.33 25.00,157.00 C26.33,156.67 26.83,153.83 28.00,153.00 C29.17,152.17 30.00,151.17 32.00,152.00 C34.00,152.83 37.00,157.33 40.00,158.00 C43.00,158.67 47.67,155.67 50.00,156.00 C52.33,156.33 53.33,156.83 54.00,160.00 C54.67,163.17 54.83,171.67 54.00,175.00 C53.17,178.33 51.50,178.67 49.00,180.00 C46.50,181.33 41.17,182.83 39.00,183.00 C36.83,183.17 36.67,183.50 36.00,181.00 C35.33,178.50 34.33,171.83 35.00,168.00 C35.67,164.17 39.17,159.67 40.00,158.00"
     fill="none"
     stroke="black"
     stroke-width="4.00"
     stroke-linecap="round"
     stroke-linejoin="round"
     id="path22"
     style="stroke-width:4;stroke-dasharray:none" />
  <path
     d="M25.00,157.00 C24.17,159.83 21.33,170.67 20.00,174.00 C18.67,177.33 19.00,177.00 17.00,177.00 C15.00,177.00 10.00,173.33 8.00,174.00 C6.00,174.67 4.83,179.17 5.00,181.00 C5.17,182.83 7.17,184.33 9.00,185.00 C10.83,185.67 14.67,186.33 16.00,185.00 C17.33,183.67 16.83,178.33 17.00,177.00"
     fill="none"
     stroke="black"
     stroke-width="4.47"
     stroke-linecap="round"
     stroke-linejoin="round"
     id="path23"
     style="stroke-width:4;stroke-dasharray:none" />
  <path
     d="M37.00,184.00 L37.00,184.00"
     fill="none"
     stroke="black"
     stroke-width="7.73"
     stroke-linecap="round"
     stroke-linejoin="round"
     id="path24"
     style="stroke-width:4;stroke-dasharray:none" />
  <path
     d="m 17,184 c 0.67,1 2.17,5 4,6 1.83,1 4.33,0.83 7,0 2.67,-0.83 7,-6.33 9,-5 2,1.33 1.5,9.67 3,13 1.5,3.33 3.916996,9.75589 4.916996,10.92589"
     fill="none"
     stroke="#000000"
     stroke-width="4.47"
     stroke-linecap="round"
     stroke-linejoin="round"
     id="path25"
     style="stroke-width:4;stroke-dasharray:none"
     sodipodi:nodetypes="cssssc" />
  <path
     d="M 62.158922,226.65985 C 61.988922,231.32985 59.33,243.83 58,256 c -1.33,12.17 -5.33,36.83 -7,45"
     fill="none"
     stroke="#000000"
     stroke-width="6"
     stroke-linecap="round"
     stroke-linejoin="round"
     id="path26"
     sodipodi:nodetypes="csc"
     style="stroke-width:4;stroke-dasharray:none" />
  <path
     d="M15.00,257.00 C16.00,257.17 18.83,256.50 21.00,258.00 C23.17,259.50 26.17,263.33 28.00,266.00 C29.83,268.67 31.33,270.33 32.00,274.00 C32.67,277.67 32.83,285.83 32.00,288.00 C31.17,290.17 29.00,288.33 27.00,287.00 C25.00,285.67 22.17,283.67 20.00,280.00 C17.83,276.33 14.83,268.67 14.00,265.00 C13.17,261.33 14.83,259.17 15.00,258.00"
     fill="none"
     stroke="black"
     stroke-width="4.47"
     stroke-linecap="round"
     stroke-linejoin="round"
     id="path27"
     style="stroke-width:4;stroke-dasharray:none" />
</svg>

<?xml version="1.0" encoding="UTF-8"?>
<svg xmlns="http://www.w3.org/2000/svg" viewBox="0 0 197 618" width="197" height="618">
  <path d="M125.00,32.00 C125.33,34.17 126.83,40.50 127.00,45.00 C127.17,49.50 125.83,56.67 126.00,59.00 C126.17,61.33 129.83,59.00 128.00,59.00 C126.17,59.00 117.17,59.00 115.00,59.00" fill="none" stroke="black" stroke-width="6.00" stroke-linecap="round" stroke-linejoin="round"/>
  <path d="M92.00,48.00 C93.50,49.33 98.83,53.50 101.00,56.00 C103.17,58.50 104.33,61.83 105.00,63.00" fill="none" stroke="black" stroke-width="4.00" stroke-linecap="round" stroke-linejoin="round"/>
  <path d="M84.00,51.00 C84.17,51.83 82.33,53.17 85.00,56.00 C87.67,58.83 97.50,66.00 100.00,68.00" fill="none" stroke="black" stroke-width="4.00" stroke-linecap="round" stroke-linejoin="round"/>
  <path d="M160.00,60.00 C159.00,60.67 156.50,63.17 154.00,64.00 C151.50,64.83 146.50,64.83 145.00,65.00" fill="none" stroke="black" stroke-width="4.00" stroke-linecap="round" stroke-linejoin="round"/>
  <path d="M76.00,63.00 C77.33,64.17 81.67,68.67 84.00,70.00 C86.33,71.33 89.00,70.83 90.00,71.00" fill="none" stroke="black" stroke-width="4.00" stroke-linecap="round" stroke-linejoin="round"/>
  <path d="M164.00,70.00 C162.67,71.00 160.00,74.83 156.00,76.00 C152.00,77.17 142.67,76.83 140.00,77.00" fill="none" stroke="black" stroke-width="4.00" stroke-linecap="round" stroke-linejoin="round"/>
  <path d="M83.00,81.00 C80.83,80.83 73.33,82.33 70.00,80.00 C66.67,77.67 64.50,71.67 63.00,67.00 C61.50,62.33 60.67,56.83 61.00,52.00 C61.33,47.17 63.50,41.17 65.00,38.00 C66.50,34.83 63.50,33.67 70.00,33.00 C76.50,32.33 97.00,37.00 104.00,34.00 C111.00,31.00 108.83,19.83 112.00,15.00 C115.17,10.17 119.83,6.67 123.00,5.00 C126.17,3.33 126.83,3.67 131.00,5.00 C135.17,6.33 144.33,10.83 148.00,13.00 C151.67,15.17 151.83,16.17 153.00,18.00 C154.17,19.83 155.00,19.00 155.00,24.00 C155.00,29.00 156.67,41.83 153.00,48.00 C149.33,54.17 137.33,59.17 133.00,61.00 C128.67,62.83 128.00,59.33 127.00,59.00" fill="none" stroke="black" stroke-width="4.47" stroke-linecap="round" stroke-linejoin="round"/>
  <path d="M93.00,82.00 C96.00,82.17 107.83,85.83 111.00,83.00 C114.17,80.17 111.17,69.00 112.00,65.00 C112.83,61.00 115.67,61.33 116.00,59.00 C116.33,56.67 116.00,55.17 114.00,51.00 C112.00,46.83 105.67,36.83 104.00,34.00" fill="none" stroke="black" stroke-width="4.24" stroke-linecap="round" stroke-linejoin="round"/>
  <path d="M146.00,86.00 C146.33,86.17 148.00,86.00 148.00,87.00 C148.00,88.00 145.67,90.67 146.00,92.00 C146.33,93.33 146.67,94.00 150.00,95.00 C153.33,96.00 160.67,98.83 166.00,98.00 C171.33,97.17 178.00,93.00 182.00,90.00 C186.00,87.00 189.67,84.67 190.00,80.00 C190.33,75.33 186.33,66.83 184.00,62.00 C181.67,57.17 181.17,53.33 176.00,51.00 C170.83,48.67 156.83,48.50 153.00,48.00" fill="none" stroke="black" stroke-width="4.00" stroke-linecap="round" stroke-linejoin="round"/>
  <path d="M168.00,88.00 C165.00,87.67 153.67,85.33 150.00,86.00 C146.33,86.67 147.33,91.00 146.00,92.00 C144.67,93.00 145.17,93.17 142.00,92.00 C138.83,90.83 129.50,86.17 127.00,85.00" fill="none" stroke="black" stroke-width="4.00" stroke-linecap="round" stroke-linejoin="round"/>
  <path d="M84.00,91.00 C82.83,91.33 79.17,91.83 77.00,93.00 C74.83,94.17 72.00,97.17 71.00,98.00" fill="none" stroke="black" stroke-width="4.00" stroke-linecap="round" stroke-linejoin="round"/>
  <path d="M90.00,96.00 L77.00,107.00" fill="none" stroke="black" stroke-width="4.00" stroke-linecap="round" stroke-linejoin="round"/>
  <path d="M133.00,99.00 C132.83,99.33 130.33,98.83 132.00,101.00 C133.67,103.17 141.17,110.17 143.00,112.00" fill="none" stroke="black" stroke-width="4.00" stroke-linecap="round" stroke-linejoin="round"/>
  <path d="M123.00,102.00 C122.83,102.67 120.67,103.17 122.00,106.00 C123.33,108.83 129.50,116.83 131.00,119.00" fill="none" stroke="black" stroke-width="4.00" stroke-linecap="round" stroke-linejoin="round"/>
  <path d="M114.00,108.00 L119.00,122.00" fill="none" stroke="black" stroke-width="4.00" stroke-linecap="round" stroke-linejoin="round"/>
  <path d="M80.00,613.00 C80.17,612.33 81.50,612.00 81.00,609.00 C80.50,606.00 82.33,626.17 77.00,595.00 C71.67,563.83 53.33,453.83 49.00,422.00 C44.67,390.17 51.00,423.17 51.00,404.00 C51.00,384.83 51.17,324.83 49.00,307.00 C46.83,289.17 40.83,300.33 38.00,297.00 C35.17,293.67 33.00,288.33 32.00,287.00 C31.00,285.67 32.00,288.67 32.00,289.00" fill="none" stroke="black" stroke-width="6.00" stroke-linecap="round" stroke-linejoin="round"/>
  <path d="M134.00,60.00 C133.17,64.00 132.83,79.83 129.00,84.00 C125.17,88.17 114.17,85.17 111.00,85.00 C107.83,84.83 109.83,83.17 110.00,83.00 C110.17,82.83 113.50,79.33 112.00,84.00 C110.50,88.67 102.83,106.50 101.00,111.00" fill="none" stroke="black" stroke-width="8.25" stroke-linecap="round" stroke-linejoin="round"/>
  <path d="M70.00,80.00 C68.33,80.83 62.83,82.67 60.00,85.00 C57.17,87.33 54.17,91.17 53.00,94.00 C51.83,96.83 52.00,98.67 53.00,102.00 C54.00,105.33 56.83,110.83 59.00,114.00 C61.17,117.17 63.50,119.17 66.00,121.00 C68.50,122.83 70.00,124.33 74.00,125.00 C78.00,125.67 86.50,126.67 90.00,125.00 C93.50,123.33 93.17,117.17 95.00,115.00 C96.83,112.83 98.67,110.17 101.00,112.00 C103.33,113.83 106.33,122.33 109.00,126.00 C111.67,129.67 114.00,131.83 117.00,134.00 C120.00,136.17 122.83,138.50 127.00,139.00 C131.17,139.50 136.33,140.00 142.00,137.00 C147.67,134.00 157.17,125.67 161.00,121.00 C164.83,116.33 164.33,112.83 165.00,109.00 C165.67,105.17 165.33,99.83 165.00,98.00 C164.67,96.17 163.33,98.00 163.00,98.00" fill="none" stroke="black" stroke-width="6.00" stroke-linecap="round" stroke-linejoin="round"/>
  <path d="M90.00,125.00 C90.00,126.17 92.17,125.33 90.00,132.00 C87.83,138.67 79.33,158.50 77.00,165.00 C74.67,171.50 75.83,169.50 76.00,171.00 C76.17,172.50 79.33,171.83 78.00,174.00 C76.67,176.17 69.33,182.00 68.00,184.00 C66.67,186.00 69.83,183.83 70.00,186.00 C70.17,188.17 70.17,190.67 69.00,197.00 C67.83,203.33 64.67,218.83 63.00,224.00 C61.33,229.17 61.33,229.33 59.00,228.00 C56.67,226.67 51.33,220.00 49.00,216.00 C46.67,212.00 43.00,208.83 45.00,204.00 C47.00,199.17 57.00,190.17 61.00,187.00 C65.00,183.83 67.67,185.33 69.00,185.00" fill="none" stroke="black" stroke-width="5.66" stroke-linecap="round" stroke-linejoin="round"/>
  <path d="M99.00,145.00 L100.00,144.00" fill="none" stroke="black" stroke-width="8.12" stroke-linecap="round" stroke-linejoin="round"/>
  <path d="M78.00,174.00 C79.33,173.83 83.00,171.33 86.00,173.00 C89.00,174.67 92.67,181.33 96.00,184.00 C99.33,186.67 103.33,188.17 106.00,189.00 C108.67,189.83 110.17,190.33 112.00,189.00 C113.83,187.67 116.17,185.00 117.00,181.00 C117.83,177.00 117.67,169.50 117.00,165.00 C116.33,160.50 114.83,157.17 113.00,154.00 C111.17,150.83 108.33,147.50 106.00,146.00 C103.67,144.50 100.83,144.67 99.00,145.00 C97.17,145.33 96.67,145.50 95.00,148.00 C93.33,150.50 90.50,155.50 89.00,160.00 C87.50,164.50 86.50,172.50 86.00,175.00" fill="none" stroke="black" stroke-width="6.00" stroke-linecap="round" stroke-linejoin="round"/>
  <path d="M8.00,174.00 C7.67,173.33 6.17,171.50 6.00,170.00 C5.83,168.50 5.67,167.17 7.00,165.00 C8.33,162.83 11.83,158.67 14.00,157.00 C16.17,155.33 18.17,155.00 20.00,155.00 C21.83,155.00 23.67,157.33 25.00,157.00 C26.33,156.67 26.83,153.83 28.00,153.00 C29.17,152.17 30.00,151.17 32.00,152.00 C34.00,152.83 37.00,157.33 40.00,158.00 C43.00,158.67 47.67,155.67 50.00,156.00 C52.33,156.33 53.33,156.83 54.00,160.00 C54.67,163.17 54.83,171.67 54.00,175.00 C53.17,178.33 51.50,178.67 49.00,180.00 C46.50,181.33 41.17,182.83 39.00,183.00 C36.83,183.17 36.67,183.50 36.00,181.00 C35.33,178.50 34.33,171.83 35.00,168.00 C35.67,164.17 39.17,159.67 40.00,158.00" fill="none" stroke="black" stroke-width="4.00" stroke-linecap="round" stroke-linejoin="round"/>
  <path d="M25.00,157.00 C24.17,159.83 21.33,170.67 20.00,174.00 C18.67,177.33 19.00,177.00 17.00,177.00 C15.00,177.00 10.00,173.33 8.00,174.00 C6.00,174.67 4.83,179.17 5.00,181.00 C5.17,182.83 7.17,184.33 9.00,185.00 C10.83,185.67 14.67,186.33 16.00,185.00 C17.33,183.67 16.83,178.33 17.00,177.00" fill="none" stroke="black" stroke-width="4.47" stroke-linecap="round" stroke-linejoin="round"/>
  <path d="M37.00,184.00 L37.00,184.00" fill="none" stroke="black" stroke-width="7.73" stroke-linecap="round" stroke-linejoin="round"/>
  <path d="M17.00,184.00 C17.67,185.00 19.17,189.00 21.00,190.00 C22.83,191.00 25.33,190.83 28.00,190.00 C30.67,189.17 35.00,183.67 37.00,185.00 C39.00,186.33 38.50,194.67 40.00,198.00 C41.50,201.33 45.00,203.83 46.00,205.00" fill="none" stroke="black" stroke-width="4.47" stroke-linecap="round" stroke-linejoin="round"/>
  <path d="M59.00,228.00 C58.83,232.67 59.33,243.83 58.00,256.00 C56.67,268.17 52.67,292.83 51.00,301.00 C49.33,309.17 48.50,304.33 48.00,305.00" fill="none" stroke="black" stroke-width="6.00" stroke-linecap="round" stroke-linejoin="round"/>
  <path d="M15.00,257.00 C16.00,257.17 18.83,256.50 21.00,258.00 C23.17,259.50 26.17,263.33 28.00,266.00 C29.83,268.67 31.33,270.33 32.00,274.00 C32.67,277.67 32.83,285.83 32.00,288.00 C31.17,290.17 29.00,288.33 27.00,287.00 C25.00,285.67 22.17,283.67 20.00,280.00 C17.83,276.33 14.83,268.67 14.00,265.00 C13.17,261.33 14.83,259.17 15.00,258.00" fill="none" stroke="black" stroke-width="4.47" stroke-linecap="round" stroke-linejoin="round"/>
</svg>
